X: 1
T: Rainy Night in Montague
C: George Reynolds
M: C|
L: 1/8
R: reel
K: Dmix
|:\
"D"ADCA, G,A,CD | ADCA, G,A,CD | "C"E2ED EGED | E2ED EGED | 
"D"ADCA, G,A,CD | ADCA, G,A,CD | "C"E2ED EGED |1 "D"D2DD G,A,CD :|\
[2 "D"D2 DD D2 DD || 
|:\
"D"Addc d2dc | AGAB c2cB | "C"AGEG AdcB | "Am"A2AB c2cB | 
"D"Addc dedc | AGAB c2cB | "Am"AGEG AGED |1 "D"D2DD DEFG :|\
[2 "D"D2 DD D4 |] 
% text 5/15/13
